X: 38382
T: Star Of Brittany, The
R: waltz
M: 3/4
K: Dmajor
|:f4f2|e4d2|c2B2A2|B6|f2e2f2|g2f2g2|a4g2|f6|
b3c' b2|a3gf2|e3fd2|c2d2c2|B3cd2|c2d2c2|B4 (3cBA|1 B6:|2 Bc de fa||
;(b6|b2)c'3b|a4f2|de fg af|(g6|g2) a3g|f4B2|Bc de fg|
e4e2|e2f2e2|d2e2(f2|f2)e2d2|e4e2|ef3 d2|c6|cd ef ga|
(b6|b2)c'3b|a4f2|de fg af|(g6|g2) a3g|f4B2|Bc de fg|
e4e2|e2f2e2|d2e2(f2|f2)e2d2|e4e2|ef3 d2|(c6|
c2)d2c2|B3cd|c2d2c2|1 B4A2|B6||"Last"BF Bc df|"Fin"b6||
|:fB eB dB|cB dB eB|fB eB dB|cB dB eB|
bB aB gB|eB fB gA|f2e2d2|c6:|

